X: 40839
T: Tralee Gaol
R: polka
M: 2/4
K: Adorian
|:eA AB/d/|~e>d B/A/B/d/|eA AB/A/|G>A Bd|
eA AB/d/|~e>d B/A/B/d/|e/d/e/f/ gB|BA A2:|
|:ea ag/a/|b>a g/f/g/e/|d/c/B/d/ gB|d/c/B/A/ G/A/B/d/|
ea ag/a/|b>a g/f/g/e/|d/c/B/d/ gB|BA A2:|

